icon-themes/breeze_svg/sfx2/res/symphony/sidebar-imganim-small.svg

<svg viewBox="0 0 16 16" xmlns="http://www.w3.org/2000/svg"><path d="m5 3a2 2 0 0 0 -2 2 2 2 0 0 0 2 2 2 2 0 0 0 2-2 2 2 0 0 0 -2-2zm3 0v1h5v-1zm0 2v1h3v-1zm1 3s-2.33135 2.38318-2.34375 2.34375l-1.34375-1.34375h-.03125l-3.28125 3.28125v1.71875h2 10v-1zm1.5 0v1h3.5v-1zm2 2v1h1.5v-1z" fill="#4d4d4d"/></svg>

<svg xmlns="http://www.w3.org/2000/svg" viewBox="0 0 16 16">
 <path 
     style="fill:#4d4d4d" 
     d="M 5 3 A 2 2 0 0 0 3 5 A 2 2 0 0 0 5 7 A 2 2 0 0 0 7 5 A 2 2 0 0 0 5 3 z M 8 3 L 8 4 L 13 4 L 13 3 L 8 3 z M 8 5 L 8 6 L 11 6 L 11 5 L 8 5 z M 9 8 C 9 8 6.66865 10.38318 6.65625 10.34375 L 5.3125 9 L 5.28125 9 L 2 12.28125 L 2 14 L 4 14 L 14 14 L 14 13 L 9 8 z M 10.5 8 L 10.5 9 L 14 9 L 14 8 L 10.5 8 z M 12.5 10 L 12.5 11 L 14 11 L 14 10 L 12.5 10 z "
     />
</svg>
